packages/foundations/assets/icons/functional/images/navigation/log_in_16.svg

<svg width="16" height="16" viewBox="0 0 16 16" fill="none" xmlns="http://www.w3.org/2000/svg">
<g clip-path="url(#clip0_187_50)">
<path fill-rule="evenodd" clip-rule="evenodd" d="M14 4.79999C14 3.47519 12.9248 2.39999 11.6 2.39999H10C9.5504 2.39999 9.2 2.77519 9.2 3.19999C9.2 3.65039 9.5504 3.99999 10 3.99999H11.6C12.0248 3.99999 12.4 4.35039 12.4 4.79999V11.2C12.4 11.6504 12.0248 12 11.6 12H10C9.5504 12 9.2 12.3504 9.2 12.8C9.2 13.2248 9.5504 13.6 10 13.6H11.6C12.9248 13.6 14 12.5248 14 11.2V4.79999ZM2 7.99999C2 8.42479 2.3496 8.79999 2.8 8.79999H7.2752L6.2496 9.82479C6.0752 9.97519 6 10.1752 6 10.4C6 10.8496 6.3496 11.2 6.8 11.2C7 11.2 7.2 11.1248 7.3752 10.9752L9.7752 8.54959C9.9248 8.39999 10 8.19999 10 7.99999C10 7.79999 9.9248 7.59999 9.7752 7.42479L7.3752 5.02479C7.2248 4.87519 7 4.79999 6.8 4.79999C6.3752 4.79999 6 5.14959 6 5.59999C6 5.79999 6.0752 6.02479 6.2496 6.17519L7.2752 7.19999H2.8C2.3496 7.19999 2 7.55039 2 7.99999Z" fill="#1A1C1F"/>
</g>
<defs>
<clipPath id="clip0_187_50">
<rect width="16" height="16" fill="white"/>
</clipPath>
</defs>
</svg>

<svg xmlns="http://www.w3.org/2000/svg" width="16" height="16" fill="none"><g clip-path="url(#a)"><path fill="#1A1C1F" fill-rule="evenodd" d="M14 4.8a2.4 2.4 0 0 0-2.4-2.4H10c-.45 0-.8.375-.8.8 0 .45.35.8.8.8h1.6c.425 0 .8.35.8.8v6.4c0 .45-.375.8-.8.8H10c-.45 0-.8.35-.8.8 0 .425.35.8.8.8h1.6a2.4 2.4 0 0 0 2.4-2.4zM2 8c0 .425.35.8.8.8h4.475L6.25 9.825A.73.73 0 0 0 6 10.4c0 .45.35.8.8.8.2 0 .4-.075.575-.225l2.4-2.425C9.925 8.4 10 8.2 10 8s-.075-.4-.225-.575l-2.4-2.4A.84.84 0 0 0 6.8 4.8c-.425 0-.8.35-.8.8 0 .2.075.425.25.575L7.275 7.2H2.8c-.45 0-.8.35-.8.8" clip-rule="evenodd"/></g><defs><clipPath id="a"><path fill="#fff" d="M0 0h16v16H0z"/></clipPath></defs></svg>
